icons/share-box.svg

<svg width="24" height="24" viewBox="0 0 24 24" fill="none" xmlns="http://www.w3.org/2000/svg">
<path fill-rule="evenodd" clip-rule="evenodd" d="M3 4C3 3.44772 3.44772 3 4 3H9C9.55228 3 10 3.44772 10 4C10 4.55228 9.55228 5 9 5H5V19H19V15C19 14.4477 19.4477 14 20 14C20.5523 14 21 14.4477 21 15V20C21 20.5523 20.5523 21 20 21H4C3.44772 21 3 20.5523 3 20V4ZM14 5C13.4477 5 13 4.55228 13 4C13 3.44772 13.4477 3 14 3H20C20.5523 3 21 3.44772 21 4V10C21 10.5523 20.5523 11 20 11C19.4477 11 19 10.5523 19 10V6.41421L12.7071 12.7071C12.3166 13.0976 11.6834 13.0976 11.2929 12.7071C10.9024 12.3166 10.9024 11.6834 11.2929 11.2929L17.5858 5H14Z" fill="black"/>
</svg>

<svg
  width="24"
  height="24"
  viewBox="0 0 24 24"
  xmlns="http://www.w3.org/2000/svg"
>
  <path
    fill-rule="evenodd"
    clip-rule="evenodd"
    d="M3 4a1 1 0 0 1 1-1h5a1 1 0 0 1 0 2H5v14h14v-4a1 1 0 1 1 2 0v5a1 1 0 0 1-1 1H4a1 1 0 0 1-1-1V4zm11 1a1 1 0 1 1 0-2h6a1 1 0 0 1 1 1v6a1 1 0 1 1-2 0V6.414l-6.293 6.293a1 1 0 0 1-1.414-1.414L17.586 5H14z"
  />
</svg>
